X: 76
T: Something I Foretold
C: Teton Sioux band 1911-1914
N: Derived from sioux076.krn
O: South Dakota, U.S.A.
N: Teton Sioux Music by Frances Densmore, 1918
Z: transcribed to **kern format by Craig Sapp
L: 1/8
M: 2/4
Q: 1/4=58
K: A clef=bass
%%linebreak <none>
C/ C/ C C/ B,3/ [I:setbarnb 2]| 
A,2B, B, ||  
[M:3/4]A,6 ||  
[M:2/4]F, F, F, F, | 
F,4 | 
B,/ B,/ B, B,/ A,3/ | 
F,2F, F, ||  
[M:3/4]F,6 ||  
[M:2/4]F, F, F, F, | 
F,4 | 
B,/ B,/ B, B,/ A,3/ | 
F,2A, F, ||  
[M:3/4]F,6 ||  
[M:2/4]F, F, F, F, | 
F,4 | 
F,/ C,/ C, C, B,, | 
A,,2B,, B,, ||  
[M:3/4]A,,6 | 
F,, F,, F,, F,,F,,2 |]  



